static/img/in-field/checkbox-progression-indeterminate-default.svg

<svg fill="none" height="56" viewBox="0 0 56 56" width="56" xmlns="http://www.w3.org/2000/svg"><rect fill="#fff" height="24" rx="4" width="25" x="15.5" y="16"/><g fill="#90939f"><path clip-rule="evenodd" d="m18.2778 16h19.4444c1.5278 0 2.7778 1.2 2.7778 2.6667v18.6666c0 1.4667-1.25 2.6667-2.7778 2.6667h-19.4444c-1.5278 0-2.7778-1.2-2.7778-2.6667v-18.6666c0-1.4667 1.25-2.6667 2.7778-2.6667zm19.4444 21.3333v-18.6666h-19.4444v18.6666z" fill-rule="evenodd"/><path d="m21.0556 26.6667h13.8888v2.6666h-13.8888z"/></g></svg>

<svg width="56" height="56" viewBox="0 0 56 56" fill="none" xmlns="http://www.w3.org/2000/svg"><rect x="15.5" y="16" width="25" height="24" rx="4" fill="#fff"/><path fill-rule="evenodd" clip-rule="evenodd" d="M18.2778 16H37.7222C39.25 16 40.5 17.2 40.5 18.6667V37.3333C40.5 38.8 39.25 40 37.7222 40H18.2778C16.75 40 15.5 38.8 15.5 37.3333V18.6667C15.5 17.2 16.75 16 18.2778 16ZM37.7222 37.3333V18.6667H18.2778V37.3333H37.7222Z" fill="#90939F"/><path d="M21.0556 26.6667H34.9444V29.3333H21.0556V26.6667Z" fill="#90939F"/></svg>
